src/shared/assets/random-match/icon-send.svg

<svg width="36" height="36" viewBox="0 0 36 36" fill="none" xmlns="http://www.w3.org/2000/svg">
<path d="M11.3788 10.0608C10.5312 9.7734 9.75098 10.5535 10.075 11.3751C10.8529 13.3479 11.799 15.3044 12.2452 16.2017C12.4295 16.5722 12.7541 16.8548 13.1471 16.9972L15.9159 18L13.1471 19.0028C12.7541 19.1452 12.4295 19.4278 12.2452 19.7983C11.799 20.6956 10.8529 22.6521 10.075 24.6249C9.75098 25.4465 10.5312 26.2266 11.3788 25.9392C14.2267 24.9734 20.2349 22.692 25.407 19.113C26.1977 18.566 26.1977 17.434 25.407 16.887C20.2349 13.308 14.2267 11.0266 11.3788 10.0608Z" fill="#E8CE83"/>
</svg>

<svg xmlns="http://www.w3.org/2000/svg" fill="none" viewBox="0 0 36 36"><path fill="#e8ce83" d="M11.379 10.06c-.848-.287-1.628.493-1.304 1.315.778 1.973 1.724 3.93 2.17 4.827.185.37.51.653.902.795L15.916 18l-2.769 1.003a1.62 1.62 0 0 0-.902.795c-.446.898-1.392 2.854-2.17 4.827-.324.822.456 1.602 1.304 1.314 2.848-.966 8.856-3.247 14.028-6.826.79-.547.79-1.679 0-2.226-5.172-3.579-11.18-5.86-14.028-6.826"/></svg>
